X:46
T:College Hornpipe
S:American Veteran Fifer, #46
C:Donated by Dr. Wm. M. Haffner, Yellow Springs O.
M:2/4
L:1/16
Q:1/8=180
K:D 
%%MIDI program 72
%%MIDI transpose 8
%%MIDI ratio 3 1
|:fe | d2D2 D2AG | FAd2 dfed | e2E2 E2ed | cea2 a2>f2 |
gfga bagf | gfge dcBA | Bdce dfeg | f2d2d2 :|
|: AG | FAdA FAdA | B2G2 G2BA | GBed GBed | c2A2 A2>f2 |
gfga bagf | gfge dcBA | Bdce dfeg | f2d2d2 :|
% This tune is virtually identical to Quickstep No. 1 in the regualtion fife calls.


